archdroid-icon-theme/Archdroid-Cyan/mimetypes/scalable/application-x-deb.svg

<?xml version="1.0" encoding="UTF-8" standalone="no"?>
<svg
   xmlns:dc="http://purl.org/dc/elements/1.1/"
   xmlns:cc="http://creativecommons.org/ns#"
   xmlns:rdf="http://www.w3.org/1999/02/22-rdf-syntax-ns#"
   xmlns:svg="http://www.w3.org/2000/svg"
   xmlns="http://www.w3.org/2000/svg"
   xmlns:sodipodi="http://sodipodi.sourceforge.net/DTD/sodipodi-0.dtd"
   xmlns:inkscape="http://www.inkscape.org/namespaces/inkscape"
   fill="#00BCD4"
   width="48"
   height="48"
   viewBox="0 0 48 48"
   id="svg2"
   version="1.1"
   inkscape:version="0.91 r13725"
   sodipodi:docname="application-x-deb.svg">
  <metadata
     id="metadata10">
    <rdf:RDF>
      <cc:Work
         rdf:about="">
        <dc:format>image/svg+xml</dc:format>
        <dc:type
           rdf:resource="http://purl.org/dc/dcmitype/StillImage" />
        <dc:title />
      </cc:Work>
    </rdf:RDF>
  </metadata>
  <defs
     id="defs8" />
  <sodipodi:namedview
     pagecolor="#ffffff"
     bordercolor="#666666"
     borderopacity="1"
     objecttolerance="10"
     gridtolerance="10"
     guidetolerance="10"
     inkscape:pageopacity="0"
     inkscape:pageshadow="2"
     inkscape:window-width="1366"
     inkscape:window-height="713"
     id="namedview6"
     showgrid="false"
     inkscape:zoom="6.9532167"
     inkscape:cx="4.1944718"
     inkscape:cy="18.773674"
     inkscape:window-x="0"
     inkscape:window-y="30"
     inkscape:window-maximized="1"
     inkscape:current-layer="svg2"
     inkscape:snap-bbox="true"
     inkscape:bbox-paths="true"
     inkscape:bbox-nodes="true" />
  <path
     d="M 12 6 C 11.07 6 10.239453 6.4298437 9.6894531 7.0898438 L 6.9199219 10.449219 C 6.3399219 11.149219 6 12.03 6 13 L 6 38 C 6 40.21 7.79 42 10 42 L 38 42 C 40.21 42 42 40.21 42 38 L 42 13 C 42 12.03 41.659844 11.149219 41.089844 10.449219 L 38.320312 7.0898438 C 37.760312 6.4298437 36.93 6 36 6 L 12 6 z M 11.880859 8 L 35.880859 8 L 37.75 10 L 10.25 10 L 11.880859 8 z M 25.283203 16 C 25.021716 16.059436 24.662492 16.019105 24.416016 16.109375 L 24.267578 16.087891 C 24.6025 16.044681 24.942398 16.0286 25.283203 16 z M 23.794922 16.15625 C 23.620056 16.254029 23.445162 16.330291 23.28125 16.445312 C 23.946227 16.286674 23.914168 16.511535 24.59375 16.421875 C 24.355389 16.456564 24.067031 16.549827 24.113281 16.585938 C 24.872993 16.673977 24.988495 16.351837 25.691406 16.585938 L 25.646484 16.378906 C 26.622851 16.731477 26.827712 16.669687 27.888672 17.232422 C 28.261529 17.250476 28.29839 17.003393 28.861328 17.232422 C 28.960324 17.406273 28.838354 17.438208 29.529297 17.849609 C 29.606384 17.818977 29.392653 17.624344 29.222656 17.46875 C 30.612047 18.211624 32.121538 19.793991 32.582031 21.488281 C 32.150953 20.693474 32.538713 21.894311 32.390625 21.832031 C 32.582734 22.350339 32.740521 22.886456 32.837891 23.439453 C 32.710292 22.985857 32.431035 21.890156 31.943359 21.183594 C 31.903598 21.639624 31.314983 20.869497 31.636719 21.873047 C 31.881977 22.228461 31.686019 21.512824 31.988281 22.144531 C 31.992946 22.444764 32.109241 22.743449 32.175781 23.134766 C 32.072322 23.117726 31.945211 22.700776 31.869141 22.816406 C 31.97402 23.308546 32.145207 23.565786 32.210938 23.603516 C 32.177259 23.685877 32.089884 23.526609 32.083984 23.861328 C 32.12415 24.631995 32.300043 24.30703 32.382812 24.34375 C 32.298828 24.722896 31.959391 25.169867 32.126953 25.822266 C 32.078876 25.62468 31.985473 25.425521 31.914062 25.238281 C 31.847935 25.795335 32.036524 25.903006 31.779297 26.578125 C 31.964746 25.969544 31.946147 25.421017 31.771484 25.685547 C 31.848774 26.550543 31.085609 27.214808 31.167969 27.761719 L 30.947266 27.457031 C 30.347408 28.326694 30.933951 27.93486 30.525391 28.59375 C 30.675102 28.3349 30.445677 28.486492 30.640625 28.193359 C 30.511201 28.200865 30.064278 28.745151 29.654297 29.064453 C 28.042572 30.356471 26.118523 30.525888 24.255859 29.830078 C 24.183438 29.889516 24.588717 30.206013 24.886719 30.359375 C 25.596324 30.621671 26.397793 30.632705 27.029297 30.609375 C 25.664453 31.180224 23.0577 30.028477 22.205078 28.501953 C 22.397999 28.543945 23.060115 29.576578 23.554688 29.744141 C 23.262366 29.509837 23.035727 29.211021 22.826172 28.904297 C 23.221141 29.358298 23.701966 29.728945 24.226562 29.974609 C 24.192891 29.847009 24.371551 29.82186 24.123047 29.654297 C 22.544185 28.444235 21.609626 27.416128 21.933594 25.035156 C 22.174389 24.853393 22.238425 23.859625 22.791016 23.511719 C 23.127764 22.767628 24.138189 22.081493 25.216797 22.064453 C 26.317923 22.003798 27.246109 22.652251 27.712891 23.263672 C 26.863109 22.471705 25.471483 22.231078 24.285156 22.818359 C 23.072254 23.36385 22.354105 24.699141 22.458984 26.029297 C 22.504019 25.962961 22.544696 26.003958 22.566406 25.839844 C 22.529282 28.425096 25.350559 30.319362 27.382812 29.363281 L 27.408203 29.417969 C 28.232221 29.1932 28.125266 29.006736 28.664062 28.636719 C 28.62207 28.723543 28.300891 28.944919 28.492188 28.949219 C 28.754284 28.879638 29.574088 28.117611 29.976562 27.759766 C 30.161163 27.361551 29.87693 27.545581 30.134766 27.044922 L 30.451172 26.886719 C 30.62624 26.38038 30.820538 26.095371 30.798828 25.505859 L 30.613281 25.892578 C 30.883897 25.073225 30.727485 24.181431 30.765625 23.410156 L 30.691406 23.390625 C 30.625274 21.450266 28.947927 19.38709 27.455078 18.689453 C 26.168538 18.095072 24.18854 17.993693 23.273438 18.441406 C 23.399414 18.329833 23.901131 18.283276 23.75 18.197266 C 22.317197 18.339674 22.637349 18.696006 21.539062 18.976562 C 21.237815 19.267464 22.418562 18.743977 21.783203 19.121094 C 21.194097 19.283585 20.91783 19.018538 20.044922 19.921875 C 20.12262 20.047674 20.600528 19.549589 20.203125 20.048828 C 19.382758 19.946992 17.610478 21.925981 17.234375 22.582031 L 17.431641 22.615234 C 17.108687 23.424241 16.68282 23.941148 16.625 24.425781 C 16.541621 25.617585 16.127129 27.790762 16.705078 28.458984 L 16.648438 29.015625 C 16.727756 29.173856 16.788129 29.335881 16.886719 29.484375 L 16.757812 29.494141 C 17.365784 31.411779 17.410173 29.529801 18.212891 31.521484 C 18.09645 31.482332 17.978186 31.439967 17.808594 31.210938 C 17.788308 31.3856 18.057118 31.909393 18.375 32.318359 L 18.240234 32.472656 C 18.417128 32.793987 18.580395 32.864382 18.703125 32.976562 C 18.042612 32.61608 19.314667 34.165898 19.429688 34.363281 L 19.53125 34.181641 C 19.516644 34.441505 19.718409 34.776628 20.095703 35.242188 L 20.410156 35.230469 C 20.539581 35.486276 21.01178 35.948993 21.298828 35.970703 L 21.107422 36.21875 C 21.827982 36.446968 21.458062 36.522518 22.34375 36.835938 L 22.164062 36.519531 C 22.615631 36.911458 22.756941 37.254453 23.394531 37.554688 C 24.278394 37.862832 24.39534 37.740542 25.302734 38 C 24.533691 37.977685 23.629456 37.985045 23.021484 37.767578 C 18.873599 36.644138 15.077956 31.77904 15.355469 26.767578 C 15.291609 25.752871 15.458046 24.484983 15.289062 24.232422 C 15.526207 23.460335 15.798972 22.518836 16.351562 21.398438 C 16.311599 21.32338 16.443648 21.617423 16.724609 21.138672 C 16.895012 20.764395 17.033217 20.35201 17.248047 19.988281 L 17.359375 19.962891 C 17.469933 19.321041 18.85671 18.337385 19.269531 17.841797 L 19.298828 18.03125 C 20.199731 17.186539 21.805039 16.620083 22.708984 16.216797 C 22.471638 16.479505 23.240707 16.18992 23.794922 16.15625 z M 24.34375 16.283203 C 24.993511 16.301667 24.945223 16.345918 24.732422 16.392578 L 24.722656 16.408203 L 24.59375 16.419922 L 24.732422 16.392578 C 24.764068 16.346124 24.538293 16.318093 24.34375 16.283203 z M 15.761719 20.710938 C 15.758067 20.92881 16.129028 20.495109 15.863281 21.09375 C 15.36749 21.440438 15.818519 21.236752 15.761719 20.710938 z M 15.357422 22.378906 C 15.313807 22.581766 15.293897 22.793988 15.179688 23.144531 C 15.212956 22.87006 15.041771 22.782395 15.357422 22.378906 z M 28.349609 24.816406 C 28.394695 24.815265 28.426307 24.927631 28.404297 25.255859 C 28.33857 25.520186 28.284757 25.093894 28.216797 25.058594 C 28.245907 24.933327 28.304524 24.817547 28.349609 24.816406 z M 32.335938 25.923828 C 32.238564 26.671977 32.005546 27.408864 31.646484 28.083984 C 31.971466 27.444162 32.18307 26.754075 32.28125 26.056641 L 32.335938 25.923828 z M 28.113281 26.167969 C 28.057495 26.507151 27.898702 26.835141 27.681641 27.134766 C 27.708216 26.877133 27.075863 27.246422 27.808594 26.324219 C 27.7449 26.584083 27.129139 27.268893 27.810547 26.839844 C 27.934089 26.619538 28.064591 26.409778 28.113281 26.167969 z M 26.626953 27.576172 C 26.520654 27.677197 26.400984 27.782118 26.269531 27.884766 C 25.793618 27.811533 25.360069 27.628147 25.724609 27.623047 C 26.028494 27.650847 26.330574 27.648792 26.626953 27.576172 z M 22.027344 27.625 C 22.111329 27.793171 22.185712 27.961386 22.3125 28.101562 L 22.425781 28.431641 C 22.272622 28.1734 22.107674 27.920567 22.027344 27.625 z M 21.746094 28.123047 C 22.046935 28.703836 22.211538 28.882842 22.431641 29.3125 C 22.125728 29.058113 21.934891 28.704294 21.695312 28.378906 L 21.746094 28.123047 z "
     id="path4157" />
</svg>

<svg xmlns="http://www.w3.org/2000/svg" fill="#00BCD4" viewBox="0 0 48 48"><path d="m12 6c-.93 0-1.761.43-2.311 1.09l-2.77 3.359c-.58.7-.92 1.581-.92 2.551v25c0 2.21 1.79 4 4 4h28c2.21 0 4-1.79 4-4v-25c0-.97-.34-1.851-.91-2.551l-2.77-3.359c-.56-.66-1.39-1.09-2.32-1.09h-24m-.119 2h24l1.869 2h-27.5l1.631-2m13.402 8c-.261.059-.621.019-.867.109l-.148-.021c.335-.043.675-.059 1.016-.088m-1.488.156c-.175.098-.35.174-.514.289.665-.159.633.066 1.313-.023-.238.035-.527.128-.48.164.76.088.875-.234 1.578 0l-.045-.207c.976.353 1.181.291 2.242.854.373.018.41-.229.973 0 .099.174-.023.206.668.617.077-.031-.137-.225-.307-.381 1.389.743 2.899 2.325 3.359 4.02-.431-.795-.043.406-.191.344.192.518.35 1.054.447 1.607-.128-.454-.407-1.549-.895-2.256-.04.456-.628-.314-.307.689.245.355.049-.36.352.271.005.3.121.599.188.99-.103-.017-.231-.434-.307-.318.105.492.276.749.342.787-.034.082-.121-.077-.127.258.04.771.216.446.299.482-.084.379-.423.826-.256 1.479-.048-.198-.141-.397-.213-.584-.066.557.122.665-.135 1.34.185-.609.167-1.157-.008-.893.077.865-.686 1.529-.604 2.076l-.221-.305c-.6.87-.013.478-.422 1.137.15-.259-.08-.107.115-.4-.129.008-.576.552-.986.871-1.612 1.292-3.536 1.461-5.398.766-.072.059.333.376.631.529.71.262 1.511.273 2.143.25-1.365.571-3.972-.581-4.824-2.107.193.042.855 1.075 1.35 1.242-.292-.234-.519-.533-.729-.84.395.454.876.825 1.4 1.07-.034-.128.145-.153-.104-.32-1.579-1.21-2.513-2.238-2.189-4.619.241-.182.305-1.176.857-1.523.337-.744 1.347-1.43 2.426-1.447 1.101-.061 2.029.588 2.496 1.199-.85-.792-2.241-1.033-3.428-.445-1.213.545-1.931 1.881-1.826 3.211.045-.066.086-.025.107-.189-.037 2.585 2.784 4.48 4.816 3.523l.025.055c.824-.225.717-.411 1.256-.781-.042.087-.363.308-.172.313.262-.07 1.082-.832 1.484-1.189.185-.398-.1-.214.158-.715l.316-.158c.175-.506.369-.791.348-1.381l-.186.387c.271-.819.114-1.711.152-2.482l-.074-.02c-.066-1.94-1.743-4-3.236-4.701-1.287-.594-3.267-.696-4.182-.248.126-.112.628-.158.477-.244-1.433.142-1.113.499-2.211.779-.301.291.88-.233.244.145-.589.162-.865-.103-1.738.801.078.126.556-.372.158.127-.82-.102-2.593 1.877-2.969 2.533l.197.033c-.323.809-.749 1.326-.807 1.811-.083 1.192-.498 3.365.08 4.03l-.057.557c.079.158.14.32.238.469l-.129.01c.608 1.918.652.036 1.455 2.027-.116-.039-.235-.082-.404-.311-.02.175.249.698.566 1.107l-.135.154c.177.321.34.392.463.504-.661-.36.612 1.189.727 1.387l.102-.182c-.015.26.187.595.564 1.061l.314-.012c.129.256.602.719.889.74l-.191.248c.721.228.351.304 1.236.617l-.18-.316c.452.392.593.735 1.23 1.035.884.308 1 .186 1.908.445-.769-.022-1.673-.015-2.281-.232-4.148-1.123-7.944-5.989-7.666-11-.064-1.015.103-2.283-.066-2.535.237-.772.51-1.714 1.063-2.834-.04-.075.092.219.373-.26.17-.374.309-.787.523-1.15l.111-.025c.111-.642 1.497-1.626 1.91-2.121l.029.189c.901-.845 2.506-1.411 3.41-1.814-.237.263.532-.027 1.086-.061m.549.127c.65.018.601.063.389.109l-.01.016-.129.012.139-.027c.032-.046-.194-.074-.389-.109m-8.582 4.428c-.004.218.367-.216.102.383-.496.347-.045.143-.102-.383m-.404 1.668c-.044.203-.064.415-.178.766.033-.274-.138-.362.178-.766m12.992 2.438c.045-.001.077.111.055.439-.066.264-.12-.162-.188-.197.029-.125.088-.241.133-.242m3.986 1.107c-.097.748-.33 1.485-.689 2.16.325-.64.537-1.33.635-2.027l.055-.133m-4.223.244c-.056.339-.215.667-.432.967.027-.258-.606.112.127-.811-.064.26-.679.945.002.516.124-.22.254-.43.303-.672m-1.486 1.408c-.106.101-.226.206-.357.309-.476-.073-.909-.257-.545-.262.304.028.606.026.902-.047m-4.6.049c.084.168.158.336.285.477l.113.33c-.153-.258-.318-.511-.398-.807m-.281.498c.301.581.465.76.686 1.189-.306-.254-.497-.608-.736-.934l.051-.256"/></svg>
